X:1
T:Title
%%score { 1 | ( 2 3 ) }
L:1/8
M:4/4
K:Bb
V:1 treble nm="Grand Piano"
V:2 bass 
V:3 bass 
V:1
 z4 z2[Q:1/4=100] [DF]2 | [Fd]3 [Ec] [DB]2 [DF]2 | [EG]2 [EG]2 [Ec]2 [GB]2 | A3 F G2 A2 | %4
[M:3/4] [DB]6 |[M:1/4] [F,F]2 |[M:4/4] [Fd]3 [Ec] [DB]2 [DF]2 | [EG]2 [EG]2 [Ec]2 [GB]2 | %8
 A3 B d2 c2 |[M:3/4] [DB]6 |[M:1/4] F2 |[M:4/4] e3 c A2 F2 | [Fd]3 [Ec] [DB]2 [FB]2 | %13
 [Ec]2 [Gd]2 [Ge]2 c2 |[M:3/4] B4 A2 |[M:1/4] F2 |[M:4/4] [Fd]3 [Ec] [DB]2 [DF]2 | %17
 [EG]2 [EG]2 [Ec]2 [GB]2 | A3 B d2 c2 |[M:7/4] [DB]6 z2 z2 z4 |] %20
V:2
 z4 z2 [B,,B,]2 | [B,,B,]3 [B,,F,] [B,,F,]2 [B,,B,]2 | [E,B,]2 [E,B,]2 [C,C]2 [=E,C]2 | %3
 [F,CF]3 [F,A,] [F,B,=E]2 [F,_E]2 |[M:3/4] [B,,F,]6 |[M:1/4] z2 | %6
[M:4/4] [B,,B,]3 [B,,F,] [B,,F,]2 [B,,B,]2 | [E,B,]2 [E,B,]2 [C,C]2 [=E,C]2 | %8
 [F,CF]3 [F,B,D] [F,A,F]2 [F,E]2 |[M:3/4] [B,,F,]6 |[M:1/4] F,2 | %11
[M:4/4] [F,CF]3 [F,A,F] [F,CF]2 [F,A,]2 | [B,,B,]3 [B,,F,] [B,,F,]2 [D,B,]2 | %13
 [E,G,]2 [D,=B,]2 [C,C]2 [E,G,E]2 |[M:3/4] D4 C2 |[M:1/4] F,2 | %16
[M:4/4] [B,,B,]3 [B,,F,] [B,,F,]2 [B,,B,]2 | [E,B,]2 [E,B,]2 [C,C]2 [=E,C]2 | %18
 [F,CF]3 [F,B,D] [F,A,F]2 [F,E]2 |[M:7/4] [B,,F,]6 z2 z2 z4 |] %20
V:3
 x8 | x8 | x8 | x8 |[M:3/4] x6 |[M:1/4] x2 |[M:4/4] x8 | x8 | x8 |[M:3/4] x6 |[M:1/4] x2 | %11
[M:4/4] x8 | x8 | x8 |[M:3/4] F,6 |[M:1/4] x2 |[M:4/4] x8 | x8 | x8 |[M:7/4] x14 |] %20

